public/assets/icons/discord.svg

<svg xmlns="http://www.w3.org/2000/svg" width="24" height="24" fill="none" viewBox="0 0 24 24"><path stroke="#0E252D" stroke-width="1.3" d="M18.0105 6.2185C16.9255 5.72069 15.762 5.35393 14.5455 5.14387C14.5234 5.13982 14.5012 5.14995 14.4898 5.17021C14.3402 5.43633 14.1744 5.7835 14.0584 6.05638C12.7499 5.86051 11.4482 5.86051 10.1666 6.05638C10.0505 5.77744 9.87871 5.43633 9.7284 5.17021C9.71699 5.15062 9.69486 5.14049 9.6727 5.14387C8.45686 5.35326 7.29335 5.72002 6.20767 6.2185C6.19827 6.22255 6.19022 6.22931 6.18487 6.23808C3.97795 9.5349 3.37338 12.7507 3.66996 15.9266C3.6713 15.9421 3.68002 15.957 3.6921 15.9664C5.14817 17.0357 6.55862 17.6848 7.94287 18.115C7.96503 18.1218 7.9885 18.1137 8.0026 18.0954C8.33004 17.6483 8.62193 17.1768 8.8722 16.6811C8.88697 16.652 8.87287 16.6176 8.84268 16.6061C8.3797 16.4305 7.93884 16.2164 7.51477 15.9732C7.48123 15.9536 7.47854 15.9056 7.5094 15.8827C7.59864 15.8158 7.68791 15.7462 7.77312 15.676C7.78854 15.6632 7.81002 15.6605 7.82815 15.6686C10.6141 16.9404 13.6303 16.9404 16.3834 15.6686C16.4015 15.6598 16.423 15.6625 16.439 15.6753C16.5243 15.7456 16.6135 15.8158 16.7034 15.8827C16.7343 15.9056 16.7323 15.9536 16.6987 15.9732C16.2747 16.2211 15.8338 16.4305 15.3702 16.6054C15.34 16.6169 15.3265 16.652 15.3413 16.6811C15.5969 17.1761 15.8888 17.6476 16.2102 18.0948C16.2237 18.1137 16.2478 18.1218 16.27 18.115C17.6609 17.6848 19.0714 17.0357 20.5274 15.9664C20.5402 15.957 20.5483 15.9428 20.5496 15.9273C20.9045 12.2556 19.9551 9.06615 18.0327 6.23875C18.028 6.22931 18.0199 6.22255 18.0105 6.2185ZM9.28824 13.9928C8.44947 13.9928 7.75835 13.2228 7.75835 12.2772C7.75835 11.3316 8.43607 10.5616 9.28824 10.5616C10.1471 10.5616 10.8315 11.3383 10.8181 12.2772C10.8181 13.2228 10.1404 13.9928 9.28824 13.9928ZM14.9447 13.9928C14.106 13.9928 13.4149 13.2228 13.4149 12.2772C13.4149 11.3316 14.0926 10.5616 14.9447 10.5616C15.8036 10.5616 16.488 11.3383 16.4746 12.2772C16.4746 13.2228 15.8036 13.9928 14.9447 13.9928Z"/></svg>

<svg fill="none" viewBox="0 0 24 24"><path stroke="#0E252D" stroke-width="1.3" d="M18.01 6.218a14.039 14.039 0 00-3.465-1.074.053.053 0 00-.055.026c-.15.266-.316.614-.432.886a12.961 12.961 0 00-3.891 0 8.97 8.97 0 00-.439-.886.055.055 0 00-.055-.026 14 14 0 00-3.465 1.074.05.05 0 00-.023.02c-2.207 3.297-2.812 6.513-2.515 9.689a.06.06 0 00.022.04 14.114 14.114 0 004.25 2.148.055.055 0 00.06-.02c.328-.447.62-.918.87-1.414a.054.054 0 00-.03-.075 9.29 9.29 0 01-1.327-.633.055.055 0 01-.006-.09 6.89 6.89 0 00.264-.207.053.053 0 01.055-.007c2.786 1.271 5.802 1.271 8.555 0a.052.052 0 01.056.006c.085.07.174.14.264.208.031.023.03.07-.004.09a8.716 8.716 0 01-1.329.632.054.054 0 00-.029.076c.256.495.548.967.87 1.414a.054.054 0 00.059.02 14.08 14.08 0 004.257-2.149.054.054 0 00.023-.039c.354-3.671-.595-6.86-2.517-9.688a.043.043 0 00-.023-.02zm-8.722 7.775c-.839 0-1.53-.77-1.53-1.716 0-.945.678-1.715 1.53-1.715.86 0 1.543.776 1.53 1.715 0 .946-.678 1.716-1.53 1.716zm5.657 0c-.839 0-1.53-.77-1.53-1.716 0-.945.678-1.715 1.53-1.715.859 0 1.543.776 1.53 1.715 0 .946-.671 1.716-1.53 1.716z"/></svg>
